frontend/public/svg/interface/home.svg

<svg width="158" height="160" viewBox="0 0 158 160" fill="none" xmlns="http://www.w3.org/2000/svg">
<g clip-path="url(#clip0)">
<path d="M151.886 66.6515C150.949 65.8042 149.98 64.9277 149.056 64.0429C141.33 56.6493 133.607 49.2525 125.886 41.8532C112.662 29.1867 99.4339 16.5271 86.2013 3.87434C81.4332 -0.681452 79.358 -0.64129 74.5155 4.10365L71.0912 7.45858C54.2522 23.9548 36.8401 41.0132 19.6554 57.7297C16.005 61.2801 12.1885 64.7904 8.49739 68.1815C6.71115 69.8223 4.92858 71.4683 3.14967 73.1188C2.38276 73.8314 0.0484318 76.0066 2.05713 78.3451C3.40229 79.9114 5.19714 79.8162 7.39128 78.0633C8.82108 76.9193 10.2496 75.7313 11.6316 74.5783C12.5232 73.8346 13.4167 73.0949 14.3122 72.3571C14.7037 72.0332 15.1114 71.7404 15.7304 71.2934L15.9332 71.1464C15.9332 72.5268 15.9423 73.867 15.9488 75.1729C15.9656 78.746 15.9811 82.1216 15.9171 85.4758C15.7943 91.8557 15.6561 98.2349 15.5023 104.615C15.3124 112.937 15.1146 121.543 14.9757 130.008C14.8866 135.384 14.8355 141.095 15.2665 146.655C15.7317 152.657 18.0272 154.832 24.3647 155.271C28.2141 155.539 32.1282 155.842 35.9136 156.137C43.4011 156.72 51.1432 157.32 58.7742 157.671C77.001 158.509 95.5154 159.145 113.804 159.562C114.45 159.576 115.104 159.584 115.765 159.584C121.112 159.543 126.452 159.157 131.75 158.427C139.692 157.395 142.568 154.615 143.585 146.983C144.861 137.412 145.721 127.332 146.214 116.166C146.65 106.29 146.813 96.5948 146.986 86.3315C147.051 82.4532 147.123 78.5433 147.198 74.6016C147.872 75.2383 148.454 75.7883 149.067 76.3188C151.498 78.4254 154.113 78.6068 155.889 76.7917C156.29 76.3946 156.606 75.9205 156.82 75.3984C157.034 74.8756 157.14 74.3153 157.132 73.7511C157.037 72.1828 156.326 70.7169 155.154 69.6746C154.087 68.6427 152.968 67.6277 151.886 66.6515ZM62.1442 96.701L92.606 93.8158L93.5616 151.767L60.9541 150.51L62.1442 96.701ZM101.62 102.118C101.612 99.1814 101.454 96.2048 101.302 93.3268C101.264 92.5928 101.226 91.8583 101.189 91.1243C101.086 89.0625 100.52 87.6102 99.4585 86.6832C98.3789 85.7407 96.8147 85.3702 94.6774 85.5639C82.3119 86.6592 70.9762 87.5953 60.0231 88.4244C55.3784 88.7762 53.8129 90.4675 53.8168 95.1282C53.8362 115.043 53.831 130.32 53.7987 144.664C53.7722 145.92 53.6816 147.174 53.5273 148.421C53.4795 148.879 53.4298 149.348 53.3839 149.832L22.5996 147.912C22.544 147.435 22.4833 146.97 22.4226 146.514C22.233 145.3 22.125 144.075 22.0995 142.846C22.1305 137.491 22.1932 132.047 22.254 126.781C22.3257 120.498 22.4 114.001 22.4219 107.611C22.4433 101.591 22.4271 95.4715 22.4122 89.5535C22.3942 82.3982 22.3754 74.9993 22.4206 67.7235C22.4185 66.417 22.8789 65.1525 23.7199 64.1542C37.6179 50.7745 51.8249 37.2502 65.5652 24.1717L71.977 18.0672C74.0296 16.1128 76.0958 14.1741 78.206 12.1932L80.8162 9.74069C82.6718 11.5234 84.5222 13.2968 86.3667 15.0614C90.6348 19.1475 95.0483 23.3738 99.3318 27.5513C104.786 32.8716 110.232 38.1994 115.67 43.535C122.602 50.3262 129.769 57.3473 136.845 64.2273C138.3 65.6435 138.964 66.7758 138.557 69.0366C138.316 70.8581 138.321 72.7036 138.575 74.5238C138.708 75.7002 138.773 76.8837 138.769 78.0678L138.699 80.7885C138.418 91.7624 138.128 103.109 137.597 114.254C137.279 120.91 136.757 127.673 136.257 134.213C136.03 137.162 135.805 140.112 135.594 143.061L135.584 143.195C135.565 143.47 135.545 143.746 135.51 144.019C134.77 149.882 134.258 150.408 128.672 151.052C119.701 152.092 110.658 152.374 101.64 151.894L101.644 139.013C101.649 126.899 101.655 114.374 101.621 102.118H101.62Z" fill="black"/>
</g>
<defs>
<clipPath id="clip0">
<rect width="157" height="160" fill="white" transform="translate(0.777344)"/>
</clipPath>
</defs>
</svg>

<svg xmlns="http://www.w3.org/2000/svg" width="158" height="160" fill="none" viewBox="0 0 158 160"><g clip-path="url(#a)"><path fill="#000" d="M151.886 66.652a136 136 0 0 1-2.83-2.61q-11.589-11.09-23.17-22.189A63364 63364 0 0 0 86.201 3.874c-4.768-4.555-6.843-4.515-11.685.23L71.09 7.459c-16.839 16.496-34.25 33.554-51.436 50.27-3.65 3.551-7.467 7.061-11.158 10.453q-2.679 2.46-5.347 4.937c-.767.712-3.102 2.888-1.093 5.226 1.345 1.566 3.14 1.471 5.334-.282a269 269 0 0 0 4.24-3.485q1.338-1.115 2.681-2.22c.392-.325.8-.618 1.418-1.065l.203-.147c0 1.38.01 2.721.016 4.027.017 3.573.032 6.949-.032 10.303q-.183 9.57-.415 19.139c-.19 8.322-.387 16.928-.526 25.393-.09 5.376-.14 11.087.29 16.647.466 6.002 2.761 8.177 9.099 8.616 3.85.268 7.763.571 11.549.866 7.487.583 15.23 1.183 22.86 1.534 18.227.838 36.741 1.474 55.03 1.891q.97.022 1.961.022a124 124 0 0 0 15.985-1.157c7.942-1.032 10.818-3.812 11.835-11.444 1.276-9.571 2.136-19.651 2.629-30.817.436-9.876.599-19.571.772-29.834q.099-5.818.212-11.73c.674.636 1.256 1.186 1.869 1.717 2.431 2.106 5.046 2.288 6.822.473a4.2 4.2 0 0 0 1.243-3.04 5.93 5.93 0 0 0-1.978-4.077 129 129 0 0 0-3.268-3.023M62.144 96.7l30.462-2.885.956 57.951-32.608-1.257zm39.476 5.417c-.008-2.937-.166-5.913-.318-8.791l-.113-2.203c-.103-2.061-.669-3.514-1.73-4.44-1.08-.943-2.644-1.314-4.782-1.12a2700 2700 0 0 1-34.654 2.86c-4.645.352-6.21 2.043-6.206 6.704.02 19.915.014 35.192-.018 49.536a37 37 0 0 1-.272 3.757q-.072.686-.143 1.411l-30.784-1.92a86 86 0 0 0-.177-1.398 27.5 27.5 0 0 1-.323-3.668c.03-5.355.093-10.799.154-16.065.072-6.283.146-12.78.168-19.17.021-6.02.005-12.14-.01-18.058-.018-7.155-.037-14.554.009-21.83a5.53 5.53 0 0 1 1.299-3.569c13.898-13.38 28.105-26.904 41.845-39.982l6.412-6.105c2.053-1.954 4.119-3.893 6.229-5.874l2.61-2.452q2.784 2.674 5.55 5.32c4.269 4.087 8.682 8.313 12.966 12.49q8.181 7.98 16.338 15.984a7869 7869 0 0 0 21.175 20.692c1.455 1.416 2.119 2.549 1.712 4.81a20.4 20.4 0 0 0 .018 5.487q.2 1.766.194 3.544l-.07 2.72c-.281 10.974-.571 22.321-1.102 33.466-.318 6.656-.84 13.419-1.34 19.959a1645 1645 0 0 0-.663 8.848l-.01.134a14 14 0 0 1-.074.824c-.74 5.863-1.252 6.389-6.838 7.033a160.6 160.6 0 0 1-27.032.842l.004-12.881c.005-12.114.011-24.639-.023-36.895z"/></g><defs><clipPath id="a"><path fill="#fff" d="M.777 0h157v160h-157z"/></clipPath></defs></svg>
